svg/color/fcd.svg

<svg width="32" height="32" viewBox="0 0 32 32" fill="none" xmlns="http://www.w3.org/2000/svg">
<path d="M0 0H32V32H0V0Z" fill="black"/>
<path d="M5.80662 5.92581L9.584 10.9102L14.4668 5.92581H5.80662ZM17.6348 5.92581L22.4531 10.8438L26.1211 5.92575L17.6348 5.92581ZM16.0508 5.9785L10.7559 11.3829H21.3456L16.0508 5.9785ZM27.1699 6.47262L23.5058 11.3828H30.9081L27.1699 6.47262ZM4.79094 6.5195L1.17969 11.3828H8.47844L4.79094 6.5195ZM1.13469 12.5507L14.1601 26.8263L8.959 12.5506L1.13469 12.5507ZM10.2011 12.5507L16.0507 28.6035L21.9002 12.5507H10.2011ZM23.1424 12.5507L17.9415 26.8263L30.9668 12.5506L23.1424 12.5507Z" fill="white"/>
</svg>

<svg xmlns="http://www.w3.org/2000/svg" width="32" height="32" fill="none" viewBox="0 0 32 32"><path fill="#000" d="M0 0h32v32H0z"/><path fill="#fff" d="m5.807 5.926 3.777 4.984 4.883-4.984zm11.828 0 4.818 4.918 3.668-4.918zm-1.584.053-5.295 5.404h10.59zm11.119.494-3.664 4.91h7.402zm-22.38.046-3.61 4.864h7.298zm-3.655 6.032L14.16 26.826l-5.2-14.275zm9.066 0 5.85 16.052 5.85-16.052zm12.941 0-5.2 14.275 13.025-14.275z"/></svg>
